X:203
T:Charlie Hunter #3
C:Joe Buchanan's Scottish Tome - Page 279.2
I:279 2
Z:Carl Allison
R:Jig
L:1/8
M:6/8
K:D
A2 | DFA GBd | Adf a2 g| fed Bcd | ecA GFE | 
DFA GBd | Adf a2 g | fef gec | edd d2 :| 
f/g/ | afd d2 c | BGG G2 F | E^GB e2 d | cAA Aag | 
fdA AFA | GBd g2 g | fef gec | edd d2 :| 

